X:797
T:Pitnacree Ferryman, The
T:Boatman of Pitnacree, The
R:Reel
B:The Athole Collection
M:C|
L:1/8
K:D
f|aA A/A/A fede|f2ef dBB^g|aA A/A/A fede|fedB A/A/A A:|
B|AFAB defd|e/e/e fd edBd|1 AFAB defd efdB A/A/A A:|2
AFAB defa|efdB A/A/A A||

